picto/arrival-right-framed.svg

<svg class="color-immutable" width="30" height="30" viewBox="0 0 30 30" fill="none" xmlns="http://www.w3.org/2000/svg"><path d="M29.9999 0H0V29.9999H29.9999V0Z" fill="#2D327D"/><path d="M25.4999 2.99999C26.3249 2.99999 26.9999 3.67499 26.9999 4.49999V25.4999C26.9999 26.3249 26.3249 26.9999 25.4999 26.9999H4.49999C3.67499 26.9999 2.99999 26.3249 2.99999 25.4999V4.49999C2.99999 3.67499 3.67499 2.99999 4.49999 2.99999H25.4999ZM25.4999 2.62499H4.49999C3.46612 2.62499 2.62499 3.46612 2.62499 4.49999V25.4999C2.62499 26.5338 3.46612 27.3749 4.49999 27.3749H25.4999C26.5338 27.3749 27.3749 26.5338 27.3749 25.4999V4.49999C27.3749 3.46612 26.5338 2.62499 25.4999 2.62499Z" fill="white"/><path d="M23.769 24.1854H6.14408C6.04163 24.1854 5.95861 24.1025 5.95861 23.9999C5.95861 23.8974 6.04163 23.8145 6.14408 23.8145H23.769C23.8715 23.8145 23.9545 23.8974 23.9545 23.9999C23.9545 24.1025 23.8715 24.1854 23.769 24.1854Z" fill="white"/><path d="M23.9793 16.8744C23.8117 16.5708 23.5996 16.2939 23.3512 16.0518C22.8484 15.5614 22.2109 15.2307 21.5201 15.1012L15.7615 14.0861L12.4259 6.37896L10.9613 5.99999L10.6639 13.1871L7.99758 12.7169L7.43636 10.6902L6.28166 10.5406L5.88866 13.8306L10.5342 16.4881L21.6489 18.4477C22.1887 18.543 22.7421 18.5322 23.2779 18.417L23.2773 18.4176C23.4812 18.3737 23.6673 18.2708 23.812 18.1223C24.137 17.7891 24.2047 17.2814 23.9793 16.8744Z" fill="white"/><path d="M20.8607 19.6801C21.1375 19.6801 21.3619 19.4557 21.3619 19.1789C21.3619 18.9021 21.1375 18.6777 20.8607 18.6777C20.5839 18.6777 20.3595 18.9021 20.3595 19.1789C20.3595 19.4557 20.5839 19.6801 20.8607 19.6801Z" fill="white"/><path d="M14.6815 18.5169C14.96 18.4056 15.0956 18.0896 14.9843 17.8111C14.873 17.5326 14.557 17.397 14.2784 17.5083C13.9999 17.6196 13.8644 17.9356 13.9757 18.2142C14.087 18.4927 14.403 18.6282 14.6815 18.5169Z" fill="white"/><path d="M13.3378 18.08C13.5277 17.8478 13.4934 17.5057 13.2612 17.3158C13.029 17.1259 12.6869 17.1602 12.497 17.3924C12.3071 17.6246 12.3414 17.9667 12.5736 18.1566C12.8057 18.3465 13.1479 18.3122 13.3378 18.08Z" fill="white"/></svg>

<svg class="color-immutable" width="30" height="30" viewBox="0 0 30 30" fill="none" xmlns="http://www.w3.org/2000/svg"><path d="M30 0H0v30h30V0Z" fill="#2D327D"/><path d="M25.5 3c.825 0 1.5.675 1.5 1.5v21c0 .825-.675 1.5-1.5 1.5h-21c-.825 0-1.5-.675-1.5-1.5v-21C3 3.675 3.675 3 4.5 3h21Zm0-.375h-21A1.877 1.877 0 0 0 2.625 4.5v21c0 1.034.841 1.875 1.875 1.875h21a1.877 1.877 0 0 0 1.875-1.875v-21A1.877 1.877 0 0 0 25.5 2.625Z" fill="#fff"/><path d="M23.769 24.185H6.144a.185.185 0 1 1 0-.37H23.77a.185.185 0 1 1 0 .37ZM23.98 16.874a3.563 3.563 0 0 0-2.46-1.773l-5.758-1.015-3.336-7.707L10.96 6l-.297 7.187-2.666-.47-.562-2.027-1.154-.15-.393 3.29 4.645 2.658 11.115 1.96c.54.095 1.093.084 1.629-.031a1.057 1.057 0 0 0 .701-1.543ZM20.86 19.68a.501.501 0 1 0 0-1.002.501.501 0 0 0 0 1.002ZM14.681 18.517a.543.543 0 1 0-.403-1.009.543.543 0 0 0 .403 1.009ZM13.338 18.08a.543.543 0 1 0-.84-.688.543.543 0 0 0 .84.688Z" fill="#fff"/></svg>
